X:4454
T:Muine\'al an Bhardail
O:england
R:reel
M:C|
K:Edor
FE~E2 FD~D2|FE~E2 dBAG|FE~E2 FDFA|1 Beec dBAG:|2 Beec dBAd||
Be~e2 efed|(3Bcd ef gfed|Be~e2 efed|~B3c dAFA|
Be~e2 efed|(3Bcd ef gfef|gbaf gfed|~B3c dBAG||


